svgs/solid/arrow-right-to-arc.svg

<svg xmlns="http://www.w3.org/2000/svg" viewBox="0 0 512 512"><!--! Font Awesome Pro 6.4.2 by @fontawesome - https://fontawesome.com License - https://fontawesome.com/license (Commercial License) Copyright 2023 Fonticons, Inc. --><path d="M448 256c0-106-86-192-192-192c-17.7 0-32-14.3-32-32s14.3-32 32-32C397.4 0 512 114.6 512 256s-114.6 256-256 256c-17.7 0-32-14.3-32-32s14.3-32 32-32c106 0 192-86 192-192zM230.6 121.4l112 112c12.5 12.5 12.5 32.8 0 45.3l-112 112c-12.5 12.5-32.8 12.5-45.3 0s-12.5-32.8 0-45.3L242.7 288H32c-17.7 0-32-14.3-32-32s14.3-32 32-32H242.7l-57.4-57.4c-12.5-12.5-12.5-32.8 0-45.3s32.8-12.5 45.3 0z"/></svg>

<svg xmlns="http://www.w3.org/2000/svg" viewBox="0 0 512 512"><!--! Font Awesome Pro 6.1.1 by @fontawesome - https://fontawesome.com License - https://fontawesome.com/license (Commercial License) Copyright 2022 Fonticons, Inc. --><path d="M448 256C448 149.1 362 64 256 64C238.3 64 224 49.67 224 32C224 14.33 238.3 0 256 0C397.4 0 512 114.6 512 256C512 397.4 397.4 512 256 512C238.3 512 224 497.7 224 480C224 462.3 238.3 448 256 448C362 448 448 362 448 256zM342.6 233.4C355.1 245.9 355.1 266.1 342.6 278.6L230.6 390.6C218.1 403.1 197.9 403.1 185.4 390.6C172.9 378.1 172.9 357.9 185.4 345.4L242.7 288H32C14.33 288 0 273.7 0 256C0 238.3 14.33 224 32 224H242.7L185.4 166.6C172.9 154.1 172.9 133.9 185.4 121.4C197.9 108.9 218.1 108.9 230.6 121.4L342.6 233.4z"/></svg>
